Newaita/actions/24/mail-attachment.svg

<svg height="24" viewBox="0 0 24 24" width="24" xmlns="http://www.w3.org/2000/svg"><path d="m15.683594 2.703125c-1.191406-.027344-2.449219.355469-3.421875 1.324219l-7.367188 7.371094c-.257812.246093-.359375.613281-.269531.957031.09375.34375.359375.613281.707031.707031.34375.089844.710938-.011719.957031-.269531l7.367188-7.367188c.644531-.644531 1.4375-.828125 2.300781-.726562.859375.105469 1.742188.550781 2.269531 1.078125.527344.527344.972657 1.40625 1.074219 2.269531.105469.859375-.082031 1.652344-.722656 2.296875l-9.125 9.121094c-.582031.582031-1.078125.648437-1.59375.578125-.515625-.074219-1.042969-.402344-1.21875-.578125-.179687-.179688-.5-.695313-.574219-1.210938-.074218-.511718-.007812-1.011718.578125-1.605468l7.714844-7.714844c.175781-.175782.261719-.179688.363281-.171875.101563.003906.238282.066406.34375.171875.109375.109375.167969.246094.175782.347656.003906.101562.003906.183594-.175782.359375l-5.785156 5.789063c-.257812.25-.359375.617187-.269531.960937.089843.34375.359375.613281.703125.703125.347656.09375.714844-.011719.960937-.265625l5.789063-5.789063c.523437-.523437.785156-1.230468.746094-1.875-.035157-.644531-.328126-1.207031-.746094-1.625-.417969-.417968-.980469-.710937-1.628906-.75-.644532-.039062-1.347657.222657-1.871094.75l-7.71875 7.714844c-.003906.003906-.003906.003906-.003906.003906-.992188 1.003907-1.277344 2.261719-1.132813 3.277344.148437 1.015625.613281 1.804688 1.136719 2.328125.523437.523438 1.316406.988281 2.332031 1.132813 1.019531.144531 2.277344-.136719 3.273437-1.132813l9.121094-9.121093c1.109375-1.109376 1.449219-2.597657 1.292969-3.929688-.160156-1.332031-.765625-2.554688-1.644531-3.433594-.875-.875-2.097656-1.480468-3.429688-1.640625-.167968-.019531-.335937-.03125-.507812-.035156zm0 0" fill="#424242"/></svg>

<?xml version="1.0" encoding="UTF-8"?>
<svg xmlns="http://www.w3.org/2000/svg" xmlns:xlink="http://www.w3.org/1999/xlink" width="24px" height="24px" viewBox="0 0 24 24" version="1.1">
<g id="surface1">
<path style=" stroke:none;fill-rule:nonzero;fill:rgb(25.882354%,25.882354%,25.882354%);fill-opacity:1;" d="M 15.683594 2.703125 C 14.492188 2.675781 13.234375 3.058594 12.261719 4.027344 L 4.894531 11.398438 C 4.636719 11.644531 4.535156 12.011719 4.625 12.355469 C 4.71875 12.699219 4.984375 12.96875 5.332031 13.0625 C 5.675781 13.152344 6.042969 13.050781 6.289062 12.792969 L 13.65625 5.425781 C 14.300781 4.78125 15.09375 4.597656 15.957031 4.699219 C 16.816406 4.804688 17.699219 5.25 18.226562 5.777344 C 18.753906 6.304688 19.199219 7.183594 19.300781 8.046875 C 19.40625 8.90625 19.21875 9.699219 18.578125 10.34375 L 9.453125 19.464844 C 8.871094 20.046875 8.375 20.113281 7.859375 20.042969 C 7.34375 19.96875 6.816406 19.640625 6.640625 19.464844 C 6.460938 19.285156 6.140625 18.769531 6.066406 18.253906 C 5.992188 17.742188 6.058594 17.242188 6.644531 16.648438 L 14.359375 8.933594 C 14.535156 8.757812 14.621094 8.753906 14.722656 8.761719 C 14.824219 8.765625 14.960938 8.828125 15.066406 8.933594 C 15.175781 9.042969 15.234375 9.179688 15.242188 9.28125 C 15.246094 9.382812 15.246094 9.464844 15.066406 9.640625 L 9.28125 15.429688 C 9.023438 15.679688 8.921875 16.046875 9.011719 16.390625 C 9.101562 16.734375 9.371094 17.003906 9.714844 17.09375 C 10.0625 17.1875 10.429688 17.082031 10.675781 16.828125 L 16.464844 11.039062 C 16.988281 10.515625 17.25 9.808594 17.210938 9.164062 C 17.175781 8.519531 16.882812 7.957031 16.464844 7.539062 C 16.046875 7.121094 15.484375 6.828125 14.835938 6.789062 C 14.191406 6.75 13.488281 7.011719 12.964844 7.539062 L 5.246094 15.253906 C 5.242188 15.257812 5.242188 15.257812 5.242188 15.257812 C 4.25 16.261719 3.964844 17.519531 4.109375 18.535156 C 4.257812 19.550781 4.722656 20.339844 5.246094 20.863281 C 5.769531 21.386719 6.5625 21.851562 7.578125 21.996094 C 8.597656 22.140625 9.855469 21.859375 10.851562 20.863281 L 19.972656 11.742188 C 21.082031 10.632812 21.421875 9.144531 21.265625 7.8125 C 21.105469 6.480469 20.5 5.257812 19.621094 4.378906 C 18.746094 3.503906 17.523438 2.898438 16.191406 2.738281 C 16.023438 2.71875 15.855469 2.707031 15.683594 2.703125 Z M 15.683594 2.703125 "/>
</g>
</svg>
